packages/foundations/assets/icons/functional/images/maps/map_pin_32.svg

<svg width="32" height="32" viewBox="0 0 32 32" fill="none" xmlns="http://www.w3.org/2000/svg">
<g clip-path="url(#clip0_186_81)">
<path fill-rule="evenodd" clip-rule="evenodd" d="M16 2C21 2 25 6 25 10.9375C25 12.8438 24.2195 14.5941 23.3754 16.3124L16.93 29.4338C16.7575 29.7849 16.4062 30 16.0312 30C15.6562 30 15.3053 29.7848 15.1322 29.434L8.6573 16.3099C7.8109 14.5945 7 12.8438 7 10.9375C7 5.9688 11.0312 2 16 2ZM16.0312 4.0312C12.1562 4.0312 9 7.1562 9 11.0312C9 12.625 9.7448 14.1275 10.4402 15.5548L16.0312 27.0312L21.5918 15.557C22.2849 14.1268 23 12.625 23 11.0625C23 7.1562 19.9062 4.0312 16.0312 4.0312ZM13 11C13 9.3438 14.3438 8 16 8C17.6562 8 19 9.3438 19 11C19 12.6562 17.6562 14 16 14C14.3438 14 13 12.6562 13 11Z" fill="#1A1C1F"/>
</g>
<defs>
<clipPath id="clip0_186_81">
<rect width="32" height="32" fill="white"/>
</clipPath>
</defs>
</svg>

<svg xmlns="http://www.w3.org/2000/svg" width="32" height="32" fill="none"><g clip-path="url(#a)"><path fill="#1A1C1F" fill-rule="evenodd" d="M16 2c5 0 9 4 9 8.938 0 1.906-.78 3.656-1.625 5.374L16.93 29.434a1 1 0 0 1-.899.566c-.375 0-.726-.215-.899-.566L8.657 16.31C7.811 14.595 7 12.844 7 10.938 7 5.968 11.031 2 16 2m.031 2.031c-3.875 0-7.031 3.125-7.031 7 0 1.594.745 3.096 1.44 4.524l5.591 11.476 5.56-11.474c.694-1.43 1.409-2.932 1.409-4.494 0-3.907-3.094-7.032-6.969-7.032M13 11a3 3 0 1 1 6.002.002A3 3 0 0 1 13 11" clip-rule="evenodd"/></g><defs><clipPath id="a"><path fill="#fff" d="M0 0h32v32H0z"/></clipPath></defs></svg>
